X:1
T:Debden, SMD
T:Debden, SMD
T:Benjamin Burke Beall, 1900
T:Public Domain Courtesy of the Cyber Hymnal™
C:Benjamin Burke Beall, 1900
Z:Public Domain
Z:Courtesy of the Cyber Hymnal™
%%score ( 1 2 ) ( 3 4 )
L:1/8
Q:1/4=100
M:3/4
K:Eb
V:1 treble 
V:2 treble 
V:3 bass 
V:4 bass 
V:1
 [GB]2 | [^Fc][GB] [F=A]2 [GB]2 | [Ge]4 [Bd]2 | [Ac][Ac] [Ae]2 (dc) | [GB]4 [GB]2 | %5
 [GB][FA] [FA]2 ([FA][Ac]) | [Ac][GB] [GB]2 [GB]2 | [GB]"^riten."[EG] [DF]2 [CF]2 | [DF]4 [DF]2 | %9
 [EG][FB] [Ee]2 [Fd]2 | [Ec]4 [Ec]2 | [EB][=Ec] [FA]2 [DB]2 | [EG]4 [EG]2 | %13
 [GB][^F=A] [GB]2 [=F=B]2 | [Ec][F=B] !fermata![Ec]2 (de) | [Ge][EB] [DB]2 [B,D]2 | [B,E]4 |] %17
V:2
 x2 | x6 | x6 | x4 A2 | x6 | x6 | x6 | x6 | x6 | x6 | x6 | x6 | x6 | x6 | x4 ^F2 | x6 | x4 |] %17
V:3
 [E,B,]2 | [E,=A,][E,B,] [E,C]2 [E,B,]2 | [E,B,]4 [G,E]2 | [A,E][A,E] [A,C]2 (DE) | [E,E]4 [E,E]2 | %5
 [F,E][F,D] [F,D]2 [B,,D]2 | [E,E][E,E] [E,E]2 [E,E]2 | [E,E][E,B,] [F,B,]2 [F,=A,]2 | %8
 [B,,B,]4 [B,,B,]2 | [E,B,][D,B,] [C,C]2 [G,=B,]2 | [A,C]4 A,2 | [E,G,][C,C] [F,C]2 [B,,B,]2 | %12
 [E,B,]4 [E,B,]2 | [E,E][E,E] [E,E]2 [A,D]2 | [G,E][G,D] !fermata![C,C]2 [=A,,C]2 | %15
 [B,,B,][B,,G,] [B,,F,]2 [B,,A,]2 | [E,G,]4 |] %17
V:4
 x2 | x6 | x6 | x4 A,2 | x6 | x6 | x6 | x6 | x6 | x6 | x4 A,2 | x6 | x6 | x6 | x6 | x6 | x4 |] %17

